X: 211
T: Give me a Donald
R: jig
M: 6/8
L: 1/8
Z: 2012 John Chambers <jc:trillian.mit.edu>
B: J. Anderson "Budget of Strathspeys, Reels and Country Dances" (Early 1800s) p.21 #1
F: http://imslp.org/wiki/Anderson%27s_Budget_of_Strathspeys,_Reels_and_Country_Dances_(Various)
K: D
d' |\
a2f fef | a2f f2d' | a2f fef | d2B B2d' |\
a2f fef | dfa d'c'd' | bag fge | d2B B2 :|
|: c |\
dcd fef | d2B B2d | cde efd | c2A A2c |\
dcd fef | dfa d'c'd' | bag fge | d2B B2 :|

%%sep 2 1 500
%%sep 1 1 500

